images/class__11.svg

<svg width="93" height="42" viewBox="0 0 93 42" fill="none" xmlns="http://www.w3.org/2000/svg">
<path d="M78.9414 34.3V35.1C78.9414 35.7 78.4414 36 78.0414 36L73.6414 36.1" stroke="#2D333D" stroke-width="0.75" stroke-miterlimit="10"/>
<path d="M69.4415 32.2C69.9415 32.2 70.1415 31.9 70.1415 31.5C70.1415 31.1 69.8415 30.8 69.4415 30.8C68.9415 30.8 68.7415 31.1 68.7415 31.5C68.8415 31.9 69.0415 32.2 69.4415 32.2Z" fill="#2D333D"/>
<path d="M78.9414 34.5V31" stroke="#2D333D" stroke-width="0.75" stroke-miterlimit="10"/>
<path d="M70.0415 39.5L69.3415 40.1C68.9415 40.4 68.2415 40.5 67.9415 40.1L59.3415 31.1C59.0415 30.8 59.0415 30.1 59.4415 29.8L60.4415 28.9" stroke="#2D333D" stroke-width="0.75" stroke-miterlimit="10"/>
<path d="M69.9414 39.2C70.1414 39 70.4414 38.7 70.5414 38.6L71.6414 37.6L69.7414 35.7C69.4414 35.4 69.1414 34.9 69.0414 34.5V34.4H68.9414C68.4414 34.3 68.0414 34.1 67.7414 33.7L62.0414 27.8L61.0414 28.9C61.0414 28.9 61.0414 28.9 60.9414 29C60.8414 29.1 60.5414 29.3 60.2414 29.5L59.9414 29.1L64.0414 25.4V5.80002C64.0414 5.00002 64.3414 4.60002 64.7414 4.30002C65.0414 4.00002 65.6414 3.70002 66.2414 3.70002C66.7414 3.70002 67.1414 3.80002 67.4414 4.00002L67.7414 4.20002V3.40002C67.7414 2.00002 68.7414 1.40002 69.7414 1.40002C70.3414 1.40002 70.7414 1.60002 71.2414 2.00002C71.4414 2.20002 71.7414 2.50002 71.8414 2.90002L71.9414 3.20002L72.1414 3.00002C72.4414 2.80002 72.9414 2.70002 73.3414 2.70002C74.3414 2.70002 75.3414 3.40002 75.3414 4.70002V6.90002L75.6414 6.80002C75.6414 6.80002 76.4414 6.40002 76.8414 6.40002C77.1414 6.40002 77.5414 6.50003 77.8414 6.60003C77.9414 6.60003 78.1414 6.70002 78.1414 6.70002C78.6414 7.10002 78.9414 7.80002 78.9414 8.40002V11.7L82.9414 8.10003C83.4414 7.80002 83.8414 7.50002 84.4414 7.50002C85.0414 7.50002 85.5414 7.70002 86.0414 8.20002C86.3414 8.50002 86.5414 8.90002 86.6414 9.30002L86.7414 9.60003L87.4414 9.00002C87.9414 8.70002 88.3414 8.40002 88.9414 8.40002C89.5414 8.40002 90.0414 8.60003 90.5414 9.10003C90.8414 9.40003 91.1414 10 91.1414 10.5C91.1414 10.7 91.1414 11.2 90.8414 11.5L90.6414 11.7H90.9414C91.0414 11.7 91.1414 11.8 91.2414 11.8C91.9414 12 92.6414 12.6 92.7414 13.4C92.9414 14.1 92.6414 14.8 92.0414 15.3L90.4414 16.8H90.9414C91.4414 16.9 91.6414 17.2 91.9414 17.5C92.2414 17.8 92.5414 18.4 92.5414 18.9C92.5414 19.5 92.3414 19.9 91.8414 20.4C90.6414 21.5 78.3414 32.7 78.3414 32.7C76.8414 34.1 75.8414 35 75.8414 35L74.6414 36.1L73.6414 37L70.4414 39.7L69.9414 39.2ZM72.3414 32.1C72.2414 32.7 72.0414 33.2 71.5414 33.6C71.0414 34.1 70.5414 34.3 69.9414 34.3H69.6414L69.7414 34.5C69.8414 34.7 69.9414 35.1 70.2414 35.2L72.1414 37.1L75.3414 34.3L73.3414 32.3C73.1414 32.1 72.8414 32 72.6414 31.8L72.4414 31.7L72.3414 32.1ZM84.5414 7.60003C84.2414 7.60003 83.7414 7.70003 83.5414 8.10003L66.0414 24.1L71.7414 30C72.0414 30.3 72.3414 30.8 72.4414 31.2V31.3H72.5414C73.0414 31.4 73.4414 31.6 73.7414 32L75.6414 33.9L75.7414 33.8C77.9414 31.8 89.6414 21 91.3414 19.5C92.1414 18.8 91.9414 17.9 91.4414 17.3C91.1414 17 90.7414 16.7 90.3414 16.7C90.0414 16.7 89.6414 16.9 89.3414 17.2L83.2414 22.7L82.6414 22.5L86.9414 18.5L91.3414 14.4C91.9414 13.8 91.9414 13.3 91.8414 13C91.7414 12.4 91.2414 12 90.7414 11.8C90.6414 11.8 90.4414 11.7 90.2414 11.7C89.9414 11.7 89.5414 11.8 89.2414 12.2L81.4414 19.3L81.1414 19L89.8414 11.1C90.1414 10.8 90.4414 10.4 90.4414 10C90.4414 9.70002 90.2414 9.30002 89.9414 9.00002C89.6414 8.70002 89.2414 8.50002 88.9414 8.40002H88.8414C88.5414 8.40002 88.1414 8.50002 87.8414 8.90002L86.0414 10.5L78.2414 17.6L77.9414 17.3L85.7414 10.2C86.5414 9.50002 86.3414 8.60002 85.7414 8.00002C85.3414 7.70002 84.8414 7.60003 84.5414 7.60003ZM62.3414 27.3L68.0414 33.2C68.2414 33.4 68.6414 33.7 69.0414 33.8C69.2414 33.8 69.3414 33.9 69.6414 33.9C70.2414 33.9 70.7414 33.7 71.1414 33.3C71.6414 33 71.8414 32.4 71.8414 31.8C71.8414 31.2 71.6414 30.7 71.2414 30.3L65.5414 24.4L62.3414 27.3ZM71.6414 13.6C70.9414 13.7 70.4414 14.2 69.3414 15.2C68.3414 16.2 65.3414 19.8 64.5414 21V21.1V24.7L65.3414 23.9L71.3414 18.4C72.5414 17.3 73.2414 16.2 73.2414 15.6C73.2414 15.1 73.0414 14.7 72.4414 14.1C72.2414 13.9 71.9414 13.8 71.6414 13.6ZM66.0414 4.00002C65.5414 4.00002 65.2414 4.10002 64.9414 4.30002C64.6414 4.50002 64.4414 5.00002 64.4414 5.40002V20L64.7414 19.5C65.4414 18.6 66.5414 17.2 67.4414 16.2L67.7414 15.9L67.5414 16.1V5.60003C67.5414 5.10003 67.4414 4.70002 67.0414 4.50002C66.8414 4.20002 66.5414 4.00002 66.0414 4.00002ZM73.4414 2.80002C72.6414 2.80002 71.8414 3.30002 71.8414 4.30002V13H72.0414C72.3414 13.1 72.7414 13.2 73.0414 13.6C73.6414 14.2 73.9414 14.8 73.9414 15.4C73.9414 15.4 73.9414 15.4 73.9414 15.5V16.1L75.0414 15.1V4.40002C75.0414 3.30002 74.1414 2.80002 73.4414 2.80002ZM69.8414 1.70002C69.5414 1.70002 69.0414 1.80002 68.7414 2.00002C68.4414 2.20002 68.2414 2.70002 68.2414 3.10002V15.6L68.5414 15.1C68.7414 14.9 68.8414 14.8 68.8414 14.8C69.5414 14.1 70.3414 13.4 71.1414 13.1H71.3414V4.40002V3.30002C71.3414 2.80002 71.2414 2.40002 70.8414 2.20002C70.6414 1.80002 70.1414 1.70002 69.8414 1.70002ZM77.0414 6.50002C76.7414 6.50002 76.4414 6.60002 76.2414 6.70002C75.7414 6.90002 75.5414 7.40003 75.5414 8.10003V14.8L78.7414 12V8.00002C78.7414 7.50002 78.5414 7.10002 78.2414 6.80002C78.1414 6.70002 77.9414 6.60003 77.7414 6.60003C77.5414 6.50003 77.3414 6.50002 77.0414 6.50002Z" fill="#2D333D" stroke="#2D333D" stroke-width="0.25" stroke-miterlimit="10"/>
<path d="M10.1414 13.9C10.1414 10.2 11.1414 6.8 12.5414 4.4C13.7414 2 15.6414 0.799999 17.4414 0.799999C19.2414 0.799999 20.9414 2.3 22.0414 4.5C23.2414 6.9 24.0414 10.5 24.0414 14.1C24.2414 14.1 24.5414 14 24.6414 14C24.6414 10.2 23.8414 6.6 22.4414 4.2C21.0414 1.6 19.1414 0 17.0414 0C14.8414 0 12.9414 1.6 11.6414 4.2C10.2414 6.7 9.44141 10.2 9.44141 14C9.64141 14.1 9.94141 14.1 10.1414 14.2C10.1414 13.9 10.1414 13.9 10.1414 13.9Z" fill="#2D333D"/>
<path d="M34.0414 14.3C33.9414 14 33.6414 13.7 33.3414 13.4C33.0414 13.1 32.8414 13 32.4414 12.9C32.0414 12.8 31.8414 12.9 31.4414 12.9C29.8414 13.1 28.2414 13.6 26.8414 13.9C26.1414 14 25.4414 14.2 24.6414 14.4C24.6414 14.4 24.6414 14.4 24.6414 14.2C24.6414 14.2 24.6414 14.2 24.6414 14.1C24.4414 14.1 24.1414 14.1 24.0414 14.1C24.0414 14.1 24.0414 14.1 24.0414 14.2C24.0414 14.3 24.0414 14.2 24.0414 14.4C24.0414 14.6 24.0414 14.9 24.0414 15C24.0414 15.2 24.1414 15.3 24.3414 15.3H24.4414C25.3414 15.1 26.1414 14.8 27.0414 14.7C28.5414 14.4 30.1414 13.9 31.6414 13.7C32.0414 13.6 32.1414 13.6 32.3414 13.7C32.5414 13.8 32.7414 13.9 32.9414 14C33.1414 14.2 33.1414 14.3 33.2414 14.6C33.3414 14.9 33.3414 15 33.3414 15.3C33.1414 18.6 32.5414 22 31.8414 25.4C31.0414 28.8 30.0414 32.3 29.0414 35.9C28.7414 37.1 28.0414 38.3 27.0414 39.1C26.1414 39.9 24.8414 40.5 23.6414 40.7C22.6414 40.8 21.6414 40.9 20.3414 41C19.3414 41.1 18.1414 41.1 17.0414 41.1C15.9414 41.1 14.7414 41.1 13.7414 41C12.6414 40.9 11.4414 40.8 10.5414 40.7C9.34142 40.4 8.24142 39.9 7.34142 39.1C6.44142 38.3 5.74142 37.2 5.34142 35.9C4.34142 32.3 3.34142 28.8 2.54142 25.3C1.74142 21.9 1.14142 18.5 1.04142 15.2C1.04142 15 1.04142 14.7 1.14142 14.5C1.24142 14.3 1.34142 14 1.44142 13.9C1.54142 13.8 1.74142 13.7 2.04142 13.6C2.24142 13.6 2.44142 13.6 2.74142 13.6C4.34142 13.8 5.84142 14.3 7.34142 14.6C8.14142 14.8 9.04142 14.9 9.84142 15.2C10.0414 15.3 10.1414 15.1 10.1414 15C10.1414 14.8 10.1414 14.5 10.1414 14.3C9.94142 14.2 9.64142 14.2 9.44142 14.1C9.44142 14.2 9.44142 14.3 9.44142 14.3C8.74142 14.2 8.04142 14 7.24142 13.8C5.64142 13.5 4.14142 13 2.64142 12.8C2.24142 12.7 2.04142 12.7 1.64142 12.8C1.24142 12.9 0.94142 13 0.741421 13.3C0.541421 13.5 0.24142 13.8 0.14142 14.1C0.0414201 14.4 -0.0585783 14.8 0.0414217 15.1C0.241422 18.4 0.841422 21.9 1.54142 25.3C2.34142 28.7 3.34142 32.3 4.34142 35.9C4.84142 37.3 5.54142 38.5 6.64142 39.4C7.64142 40.3 9.04142 40.9 10.4414 41.2C11.4414 41.4 12.4414 41.5 13.7414 41.7C14.7414 41.8 15.9414 41.8 17.1414 41.8C18.2414 41.8 19.4414 41.8 20.5414 41.7C21.6414 41.6 22.8414 41.5 23.8414 41.2C25.3414 41 26.5414 40.3 27.6414 39.4C28.6414 38.5 29.4414 37.2 29.9414 35.9C30.9414 32.3 31.9414 28.8 32.7414 25.3C33.5414 21.8 34.1414 18.4 34.2414 15.1C34.2414 14.9 34.1414 14.6 34.0414 14.3Z" fill="#2D333D"/>
<path d="M11.9414 14.7C12.0414 11.3 12.6414 8.1 13.5414 5.9C14.4414 3.7 15.8414 2.3 17.1414 2.3C18.4414 2.3 19.8414 3.7 20.7414 5.9C21.7414 8.1 22.3414 11.2 22.3414 14.6C22.6414 14.6 22.8414 14.5 23.1414 14.5C23.0414 11.1 22.4414 7.8 21.4414 5.6C20.3414 3 18.8414 1.5 17.1414 1.5C15.4414 1.5 13.8414 3.1 12.8414 5.6C11.8414 7.9 11.2414 11 11.1414 14.5C11.4414 14.5 11.6414 14.6 11.9414 14.7Z" fill="#2D333D"/>
<path d="M23.1414 14.5C22.9414 14.5 22.6414 14.5 22.3414 14.6C22.3414 14.7 22.3414 14.8 22.3414 14.9C21.5414 15 20.7414 15.1 19.9414 15.2C19.1414 15.4 18.0414 15.4 17.1414 15.4C16.1414 15.4 15.2414 15.4 14.3414 15.3C13.5414 15.2 12.7414 15.1 11.9414 15C11.9414 14.9 11.9414 14.8 11.9414 14.8C11.7414 14.7 11.4414 14.6 11.1414 14.6C11.1414 14.8 11.1414 15.2 11.1414 15.4C11.1414 15.6 11.2414 15.7 11.4414 15.7C12.3414 15.9 13.2414 16 14.1414 16.2C15.0414 16.3 16.0414 16.3 17.0414 16.3C18.0414 16.3 19.0414 16.3 19.9414 16.2C20.8414 16.1 21.7414 16 22.6414 15.7C22.8414 15.7 22.9414 15.5 22.9414 15.4C23.1414 15 23.1414 14.7 23.1414 14.5Z" fill="#2D333D"/>
</svg>

<svg width="93" height="42" fill="none" xmlns="http://www.w3.org/2000/svg"><path d="M78.941 34.3v.8c0 .6-.5.9-.9.9l-4.4.1" stroke="#2D333D" stroke-width=".75" stroke-miterlimit="10"/><path d="M69.442 32.2c.5 0 .7-.3.7-.7 0-.4-.3-.7-.7-.7-.5 0-.7.3-.7.7.1.4.3.7.7.7Z" fill="#2D333D"/><path d="M78.941 34.5V31M70.041 39.5l-.7.6c-.4.3-1.1.4-1.4 0l-8.6-9c-.3-.3-.3-1 .1-1.3l1-.9" stroke="#2D333D" stroke-width=".75" stroke-miterlimit="10"/><path d="m69.941 39.2.6-.6 1.1-1-1.9-1.9c-.3-.3-.6-.8-.7-1.2v-.1h-.1c-.5-.1-.9-.3-1.2-.7l-5.7-5.9-1 1.1-.1.1c-.1.1-.4.3-.7.5l-.3-.4 4.1-3.7V5.8c0-.8.3-1.2.7-1.5.3-.3.9-.6 1.5-.6.5 0 .9.1 1.2.3l.3.2v-.8c0-1.4 1-2 2-2 .6 0 1 .2 1.5.6.2.2.5.5.6.9l.1.3.2-.2c.3-.2.8-.3 1.2-.3 1 0 2 .7 2 2v2.2l.3-.1s.8-.4 1.2-.4c.3 0 .7.1 1 .2.1 0 .3.1.3.1.5.4.8 1.1.8 1.7v3.3l4-3.6c.5-.3.9-.6 1.5-.6s1.1.2 1.6.7c.3.3.5.7.6 1.1l.1.3.7-.6c.5-.3.9-.6 1.5-.6s1.1.2 1.6.7c.3.3.6.9.6 1.4 0 .2 0 .7-.3 1l-.2.2h.3c.1 0 .2.1.3.1.7.2 1.4.8 1.5 1.6.2.7-.1 1.4-.7 1.9l-1.6 1.5h.5c.5.1.7.4 1 .7.3.3.6.9.6 1.4 0 .6-.2 1-.7 1.5-1.2 1.1-13.5 12.3-13.5 12.3-1.5 1.4-2.5 2.3-2.5 2.3l-1.2 1.1-1 .9-3.2 2.7-.5-.5Zm2.4-7.1c-.1.6-.3 1.1-.8 1.5-.5.5-1 .7-1.6.7h-.3l.1.2c.1.2.2.6.5.7l1.9 1.9 3.2-2.8-2-2c-.2-.2-.5-.3-.7-.5l-.2-.1-.1.4Zm12.2-24.5c-.3 0-.8.1-1 .5l-17.5 16 5.7 5.9c.3.3.6.8.7 1.2v.1h.1c.5.1.9.3 1.2.7l1.9 1.9.1-.1c2.2-2 13.9-12.8 15.6-14.3.8-.7.6-1.6.1-2.2-.3-.3-.7-.6-1.1-.6-.3 0-.7.2-1 .5l-6.1 5.5-.6-.2 4.3-4 4.4-4.1c.6-.6.6-1.1.5-1.4-.1-.6-.6-1-1.1-1.2-.1 0-.3-.1-.5-.1-.3 0-.7.1-1 .5l-7.8 7.1-.3-.3 8.7-7.9c.3-.3.6-.7.6-1.1 0-.3-.2-.7-.5-1-.3-.3-.7-.5-1-.6h-.1c-.3 0-.7.1-1 .5l-1.8 1.6-7.8 7.1-.3-.3 7.8-7.1c.8-.7.6-1.6 0-2.2-.4-.3-.9-.4-1.2-.4Zm-22.2 19.7 5.7 5.9c.2.2.6.5 1 .6.2 0 .3.1.6.1.6 0 1.1-.2 1.5-.6.5-.3.7-.9.7-1.5s-.2-1.1-.6-1.5l-5.7-5.9-3.2 2.9Zm9.3-13.7c-.7.1-1.2.6-2.3 1.6-1 1-4 4.6-4.8 5.8v3.7l.8-.8 6-5.5c1.2-1.1 1.9-2.2 1.9-2.8 0-.5-.2-.9-.8-1.5-.2-.2-.5-.3-.8-.5Zm-5.6-9.6c-.5 0-.8.1-1.1.3-.3.2-.5.7-.5 1.1V20l.3-.5c.7-.9 1.8-2.3 2.7-3.3l.3-.3-.2.2V5.6c0-.5-.1-.9-.5-1.1-.2-.3-.5-.5-1-.5Zm7.4-1.2c-.8 0-1.6.5-1.6 1.5V13h.2c.3.1.7.2 1 .6.6.6.9 1.2.9 1.8v.7l1.1-1V4.4c0-1.1-.9-1.6-1.6-1.6Zm-3.6-1.1c-.3 0-.8.1-1.1.3-.3.2-.5.7-.5 1.1v12.5l.3-.5.3-.3c.7-.7 1.5-1.4 2.3-1.7h.2V3.3c0-.5-.1-.9-.5-1.1-.2-.4-.7-.5-1-.5Zm7.2 4.8c-.3 0-.6.1-.8.2-.5.2-.7.7-.7 1.4v6.7l3.2-2.8V8c0-.5-.2-.9-.5-1.2-.1-.1-.3-.2-.5-.2-.2-.1-.4-.1-.7-.1Z" fill="#2D333D" stroke="#2D333D" stroke-width=".25" stroke-miterlimit="10"/><path d="M10.141 13.9c0-3.7 1-7.1 2.4-9.5 1.2-2.4 3.1-3.6 4.9-3.6 1.8 0 3.5 1.5 4.6 3.7 1.2 2.4 2 6 2 9.6.2 0 .5-.1.6-.1 0-3.8-.8-7.4-2.2-9.8-1.4-2.6-3.3-4.2-5.4-4.2-2.2 0-4.1 1.6-5.4 4.2-1.4 2.5-2.2 6-2.2 9.8.2.1.5.1.7.2v-.3Z" fill="#2D333D"/><path d="M34.041 14.3c-.1-.3-.4-.6-.7-.9-.3-.3-.5-.4-.9-.5-.4-.1-.6 0-1 0-1.6.2-3.2.7-4.6 1-.7.1-1.4.3-2.2.5V14.1h-.6v.9c0 .2.1.3.3.3h.1c.9-.2 1.7-.5 2.6-.6 1.5-.3 3.1-.8 4.6-1 .4-.1.5-.1.7 0l.6.3c.2.2.2.3.3.6.1.3.1.4.1.7-.2 3.3-.8 6.7-1.5 10.1-.8 3.4-1.8 6.9-2.8 10.5-.3 1.2-1 2.4-2 3.2-.9.8-2.2 1.4-3.4 1.6-1 .1-2 .2-3.3.3-1 .1-2.2.1-3.3.1-1.1 0-2.3 0-3.3-.1-1.1-.1-2.3-.2-3.2-.3-1.2-.3-2.3-.8-3.2-1.6-.9-.8-1.6-1.9-2-3.2-1-3.6-2-7.1-2.8-10.6-.8-3.4-1.4-6.8-1.5-10.1 0-.2 0-.5.1-.7.1-.2.2-.5.3-.6.1-.1.3-.2.6-.3h.7c1.6.2 3.1.7 4.6 1 .8.2 1.7.3 2.5.6.2.1.3-.1.3-.2v-.7c-.2-.1-.5-.1-.7-.2v.2c-.7-.1-1.4-.3-2.2-.5-1.6-.3-3.1-.8-4.6-1-.4-.1-.6-.1-1 0s-.7.2-.9.5c-.2.2-.5.5-.6.8-.1.3-.2.7-.1 1 .2 3.3.8 6.8 1.5 10.2.8 3.4 1.8 7 2.8 10.6.5 1.4 1.2 2.6 2.3 3.5 1 .9 2.4 1.5 3.8 1.8 1 .2 2 .3 3.3.5 1 .1 2.2.1 3.4.1 1.1 0 2.3 0 3.4-.1s2.3-.2 3.3-.5c1.5-.2 2.7-.9 3.8-1.8 1-.9 1.8-2.2 2.3-3.5 1-3.6 2-7.1 2.8-10.6.8-3.5 1.4-6.9 1.5-10.2 0-.2-.1-.5-.2-.8Z" fill="#2D333D"/><path d="M11.941 14.7c.1-3.4.7-6.6 1.6-8.8.9-2.2 2.3-3.6 3.6-3.6 1.3 0 2.7 1.4 3.6 3.6 1 2.2 1.6 5.3 1.6 8.7.3 0 .5-.1.8-.1-.1-3.4-.7-6.7-1.7-8.9-1.1-2.6-2.6-4.1-4.3-4.1-1.7 0-3.3 1.6-4.3 4.1-1 2.3-1.6 5.4-1.7 8.9.3 0 .5.1.8.2Z" fill="#2D333D"/><path d="M23.141 14.5c-.2 0-.5 0-.8.1v.3l-2.4.3c-.8.2-1.9.2-2.8.2-1 0-1.9 0-2.8-.1l-2.4-.3v-.2c-.2-.1-.5-.2-.8-.2v.8c0 .2.1.3.3.3.9.2 1.8.3 2.7.5.9.1 1.9.1 2.9.1s2 0 2.9-.1c.9-.1 1.8-.2 2.7-.5.2 0 .3-.2.3-.3.2-.4.2-.7.2-.9Z" fill="#2D333D"/></svg>
